icon/lg/pagerduty-icon.svg

<?xml version="1.0" encoding="UTF-8"?>
<svg viewBox="0 0 256 372" version="1.1" xmlns="http://www.w3.org/2000/svg" xmlns:xlink="http://www.w3.org/1999/xlink" preserveAspectRatio="xMidYMid" height="1em" width="1em">
  <g>
    <path d="M54.5538972,272.557214 L54.5538972,371.475954 L0,371.475954 L0,272.557214 L54.5538972,272.557214 Z M109.046548,0.000774792703 C155.791517,0.0522613599 176.052007,2.70434494 204.842454,18.2553897 C236.470978,35.2371476 256,68.9883914 256,111.018242 C256,150.076285 240.079602,183.827529 209.512438,203.993367 C181.492537,222.6733 149.651741,225.220564 107.197347,225.220564 L107.197347,225.220564 L0,225.220564 L0,0 Z M117.785558,47.7544491 L116.112769,47.761194 L54.5538972,48.185738 L54.5538972,178.096186 L119.721393,178.096186 C165.359867,178.096186 200.172471,159.840796 200.172471,111.655058 C200.172471,66.8656716 172.15257,47.3366501 116.112769,47.761194 Z" fill="#06AC38"/>
  </g>
</svg>

<svg width="256" height="372" xmlns="http://www.w3.org/2000/svg" preserveAspectRatio="xMidYMid"><path d="M54.554 272.557v98.919H0v-98.919h54.554ZM109.047.001c46.745.051 67.005 2.703 95.795 18.254C236.471 35.237 256 68.988 256 111.018c0 39.058-15.92 72.81-46.488 92.975-28.02 18.68-59.86 21.228-102.315 21.228H0V0Zm8.739 47.753-1.673.007-61.56.425v129.91h65.168c45.639 0 80.451-18.255 80.451-66.44 0-44.79-28.02-64.32-84.06-63.895Z" fill="#06AC38"/></svg>
